!!!COM:      Bach, Johann Sebastian
!!!CDT:      1685/03/31/-1750/07/28/
!!!OPR@@GER: Das wohltemperirte Clavier
!!!OVM@@GER: Band I
!!!OPR@ENG:  Well-Tempered Clavier
!!!OVM@ENG:  Book I
!!!OTL:      Prelude
!!!OKY:      F major
!!!ONM:      no. 11
!!!SCT:      BWV 856
!!!OMV:      1
**kern	**kern	**kern
*clefF4	*	*clefG2
*k[b-]	*	*k[b-]
*F:	*	*F:
*M12/8	*	*M12/8
*MM85	*MM85	*MM85
=1-	=1-	=1-
8F	1.ryy	16ff
.	.	16cc
8A	.	16a
.	.	16g
8c	.	16a
.	.	16cc
8A	.	16f
.	.	16a
8F	.	16cc
.	.	16ee-
8A	.	16dd
.	.	16cc
8B-	.	16dd
.	.	16b-
8d	.	16f
.	.	16en
8B-	.	16f
.	.	16b-
4FF	.	16d
.	.	16f
.	.	16a
.	.	16cc
8r	.	16b-
.	.	16a
=2	=2	=2
8F	1.ryy	16b-
.	.	16g
8G	.	16e
.	.	16d
8B-	.	16e
.	.	16g
8G	.	16c
.	.	16e
8E	.	16g
.	.	16b-
8C	.	16a
.	.	16g
8F	.	16a
.	.	16g
8A	.	16f
.	.	16e
8F	.	16f
.	.	16a
4FF	.	16c
.	.	16e
.	.	16f
.	.	16a
8r	.	16g
.	.	16f
=3	=3	=3
16F	1.ryy	2.bnw
16D	.	.
16BBn	.	.
16AA	.	.
16BB	.	.
16D	.	.
16GG	.	.
16BB	.	.
16D	.	.
16F	.	.
16E	.	.
16D	.	.
2.Ew	.	16cc
.	.	16g
.	.	16e
.	.	16d
.	.	16e
.	.	16g
.	.	16c
.	.	16e
.	.	16g
.	.	16b-
.	.	16a
.	.	16g
=4	=4	=4
16G	1.ryy	2.cc#w
16E	.	.
16C#	.	.
16BBn	.	.
16C#	.	.
16E	.	.
16AA	.	.
16C#	.	.
16E	.	.
16G	.	.
16F	.	.
16E	.	.
2.FW	.	16dd
.	.	16a
.	.	16f
.	.	16e
.	.	16f
.	.	16a
.	.	16d
.	.	16f
.	.	16a
.	.	16ccn
.	.	16b-
.	.	16a
=5	=5	=5
8G	1.ryy	16b-
.	.	16g
8B-	.	16e
.	.	16d
8G	.	16e
.	.	16g
8E	.	16c
.	.	16e
8C	.	16g
.	.	16b-
8E	.	16a
.	.	16g
8F	.	16a
.	.	16f
8A	.	16d
.	.	16c#
8F	.	16d
.	.	16f
8D	.	16B-
.	.	16d
8BB-	.	16f
.	.	16a
8D	.	16g
.	.	16f
=6	=6	=6
8E	1.ryy	16g
.	.	16e
8G	.	16c#
.	.	16Bn
8E	.	16c#
.	.	16e
8C#	.	16A
.	.	16c#
8AA	.	16e
.	.	16g
8C#	.	16f
.	.	16e
16D	.	8f
16AA	.	.
16FF	.	8a
16EE	.	.
16FF	.	8dd
16AA	.	.
16DD	.	8a
16FF	.	.
16AA	.	8f
16Cn	.	.
16BB-	.	8d
16AA	.	.
=7	=7	=7
16D	1.ryy	8g
16BB-	.	.
16GG	.	8b-
16FF#	.	.
16GG	.	8dd
16BB-	.	.
16DD	.	8b-
16GG	.	.
16BB-	.	8g
16D	.	.
16C#	.	8d
16BBn	.	.
16C#X	.	8g
16BB-	.	.
16GG	.	8cc#
16FF#X	.	.
16GG	.	8ee
16BB-	.	.
16DD	.	8cc#
16GG	.	.
16C#X	.	8g
16E	.	.
16D	.	8e
16C#	.	.
=8	=8	=8
8D	1.ryy	16dd
.	.	16a
8F	.	16f
.	.	16e
8A	.	16f
.	.	16a
8F	.	16d
.	.	16f
8D	.	16a
.	.	16cc
8F	.	16b-
.	.	16a
8DD	.	16ff
.	.	16dd
8FF	.	16b-
.	.	16a
8BB-	.	16b-
.	.	16dd
4D	.	16f
.	.	16b-
.	.	16dd
.	.	16ff
8r	.	16ee
.	.	16dd
=9	=9	=9
16d	1.ryy	2.gg#w
16Bn	.	.
16G#	.	.
16F#	.	.
16G#	.	.
16B	.	.
16E	.	.
16G#	.	.
16B	.	.
16d	.	.
16c#	.	.
16B	.	.
2.c#w	.	16aa
.	.	16ee
.	.	16cc#
.	.	16bn
.	.	16cc#
.	.	16ee
.	.	16a
.	.	16cc#
.	.	16ee
.	.	16ggn
.	.	16ff#
.	.	16ee
=10	=10	=10
16cn	1.ryy	2.ff#w
16A	.	.
16F#	.	.
16E	.	.
16F#	.	.
16A	.	.
16D	.	.
16F#	.	.
16A	.	.
16c	.	.
16Bn	.	.
16A	.	.
2.Bw	.	16gg
.	.	16dd
.	.	16bn
.	.	16a
.	.	16b
.	.	16dd
.	.	16g
.	.	16b
.	.	16dd
.	.	16ffn
.	.	16ee-
.	.	16dd
=11	=11	=11
8c	1.ryy	16ee-
.	.	16cc
8e-	.	16a
.	.	16g
8c	.	16a
.	.	16cc
8A	.	16f
.	.	16a
8F	.	16cc
.	.	16ee-
8A	.	16dd
.	.	16cc
8B-	.	16dd
.	.	16b-
8d	.	16g
.	.	16f#
8B-	.	16g
.	.	16b-
8G	.	16e-X
.	.	16g
8E-X	.	16b-
.	.	16dd
8G	.	16cc
.	.	16b-
=12	=12	=12
8A	1.ryy	16cc
.	.	16a
8c	.	16f#
.	.	16en
8A	.	16f#
.	.	16a
8F#	.	16d
.	.	16f#
8D	.	16a
.	.	16cc
8F#	.	16b-
.	.	16a
16G	.	[2.b-W
16D	.	.
16BB-	.	.
16AA	.	.
16BB-	.	.
16D	.	.
16GG	.	.
16BB-	.	.
16D	.	.
16Fn	.	.
16E	.	.
16D	.	.
=13	=13	=13
*	*staff:2	*
*	*clefG2	*
*	*k[b-]	*
16C	2.e	2.b-]
16GG	.	.
16EE	.	.
16DD	.	.
16EE	.	.
16GG	.	.
16CC	.	.
16GG	.	.
16C	.	.
16E	.	.
16D	.	.
16C	.	.
16F	2.e-	[2.a
16C	.	.
16AA	.	.
16GG	.	.
16AA	.	.
16C	.	.
16FF	.	.
16C	.	.
16F	.	.
16A	.	.
16G	.	.
16F	.	.
=14	=14	=14
[1.B-W	8d	16a]
.	.	16a
.	8ryy	16f
.	.	16en
.	8ryy	16f
.	.	16a
.	4ryy	16d
.	.	16f
.	.	16a
.	.	16cc
.	8ryy	16b-
.	.	16a
.	2.ryy	16g
.	.	16dd
.	.	16b-
.	.	16a
.	.	16b-
.	.	16dd
.	.	16g
.	.	16b-
.	.	16dd
.	.	16ff
.	.	16ee
.	.	16dd
=15	=15	=15
2.B-]	1.ryy	16ee
.	.	16gg
.	.	16ee
.	.	16dd
.	.	16ee
.	.	16gg
.	.	16cc
.	.	16ee
.	.	16gg
.	.	16bb-
.	.	16aa
.	.	16gg
8A	.	16ccc
.	.	16aa
8c	.	16ff
.	.	16ee
8A	.	16ff
.	.	16aa
8F	.	16dd
.	.	16ff
8D	.	16aa
.	.	16ccc
8F	.	16bb-
.	.	16aa
=16	=16	=16
8G	1.ryy	16bb-
.	.	16gg
8B-	.	16ee
.	.	16dd
8G	.	16ee
.	.	16gg
8E	.	16cc
.	.	16ee
8C	.	16gg
.	.	16bb-
8E	.	16aa
.	.	16gg
16F	.	16aa
16C	.	16ff
16AA	.	16cc
16GG	.	16b-
16AA	.	16cc
16C	.	16ff
16FF	.	16a
16AA	.	16cc
16C	.	16ee-
16E-	.	16gg
16D	.	16ff
16C	.	16ee-
=17	=17	=17
16F	1.ryy	[4.ddW
16D	.	.
16BB-	.	.
16AA	.	.
16BB-	.	.
16D	.	.
16FF	.	16dd]
16BB-	.	16cc
16D	.	16b-
16F	.	16a
16En	.	16g
16D	.	16f
16E	.	8b-
16C	.	.
16BB-	.	8gg
16AA	.	.
16BB-	.	8ee
16E	.	.
16GG	.	8cc
16BB-	.	.
16E	.	8b-
16G	.	.
16F	.	8gg
16E	.	.
=18	=18	=18
8F	1.ryy	16a
.	.	16g
8AA	.	16f
.	.	16e
8D	.	16f
.	.	16a
8.BB-T	.	16d
.	.	16f
.	.	16d
32AA	.	16B-
32BB-	.	.
8C	.	16G
.	.	16e
4FF	.	16f
.	.	16B-
.	.	16A
.	.	16G
8r	.	16A
.	.	16c
16r	.	4F
16C	.	.
16AA	.	.
16C	.	.
8FF	.	8r
==	==	==
*-	*-	*-
!!!AFR:  prelude
!!!EFL:  21/96
!!!END:  1994/01/13/
!!!VID:  4108147449 Bach, BWV 856-01
!!!AST:  Baroque
!!!OCY:  Deutschland
!!!ODT:  1722///
!!!PDT:  1801///
!!!EED:  Walter Hewlett
!!!ENC:  Walter Hewlett
!!!YOR:  Bach Gesellschaft Edition xiv
!!!AFT:  enhanced SCORE
!!!RDT:  2011/10/07/ by Andreas Kornstaedt using massScr2hmd
!!!SCA1: Thematisch-systematisches Verzeichnis der musikalischen Werke 
!!!SCA2: Johann Sebastian Bach: Bach-Werke-Verzeichnis (Schmieder)
!!!YEC1: Copyright 1994, 2000 Center for Computer Assisted Research 
!!!YEC2: in the Humanities
!!!YEM1: Rights to all derivative editions reserved.
!!!YEM2: Refer to licensing agreement for further details.
!!!YEN:  United States of America
!!!ref:  @{OTL}, @{SCT}
!!muse2ps: T^@{OTL} @{ONM} in @{OKY}^C^J.S. Bach\n@{SCT}-@{OMV}^
!!muse2ps: u^@{OPR@ENG}, @{OVM@ENG}^j
